X:1
T:Shine On, Bethlehem’s Star
T:Shine On, Bethlehem’s Star
T:Isaac Hickman Meredith
T:Lizzie DeArmond, 1903
T:Public Domain Courtesy of the Cyber Hymnal™
T:Public Domain Courtesy of the Cyber Hymnal™
C:Isaac Hickman Meredith
Z:Public Domain
Z:Courtesy of the Cyber Hymnal™
%%score ( 1 2 ) ( 3 4 )
L:1/8
Q:1/4=100
M:6/8
K:F
V:1 treble 
V:2 treble 
V:3 bass 
V:4 bass 
V:1
 C | (CD)[CE] ([CF][FA])[Ac] | (=Be)[=Gd] [Ac]2 [Fd] | (cG)[FA] ([GB][Ac])[Bd] | ([Ac]3 [FA]2) C | %5
w: 1.~O|won- * drous star * of|Beth- * le- hem! That|in * the heav- * ens|bright * Shone|
w: 2.~O|bless- * èd star * of|Beth- * le- hem! Still|gild * with heav’n- * ly|ray * The|
w: 3.~O|won- * drous star * of|Beth- * le- hem! Shine|on; * we too * would|bring * Our|
 (CD)[CE] ([CF][FA])[Ac] | (=Be)[=Gd] [Ac]2 [FA] | (GA)[FG] (GA)[F=B] | %8
w: forth * to guide * the|pil- * grims’ feet, Un-|to * the Prince * of|
w: path- * way to * the|Ho- * ly One Who|comes * to us * to-|
w: lives * a will- * ing|sa- * cri- fice, With|glad- * ness to * the|
 ([Ec]3 [Ec]2) [Ac]"^Boys’ Voices" | ([Ac][^G=B])[=G_B] ([FA][EG])[CF] | %10
w: Light, * Shine|on * thro’ end- * less|
w: day. * Gleam|thro’ * the dark- * some|
w: King. * With|joy * we tra- * vel|
 [EG]3 [CF]2"^Girls’ Voices" [Ac] | ([Ac][^G=B])[=G_B] ([FA][CG])[CF] | ([Ec]3 [Ec]2)"^All" C | %13
w: ag- es, While|ring- * ing thro’ * the|sky; * His|
w: sha- dows That|fill * the heart * with|fear, * Till|
w: on- ward, En-|cir- * cled by * the|glow— * The|
 (CD)[CE] ([CF][FA])[Ac] | (=Be)[=Gd] [Ac]3 | [Fc][Fd][Fc] [EG]2 [EA] | [CF]3- [CF]2 z || %17
w: loy- * al ones * still|hear * the song:|“Glo- ry to God on|high!” *|
w: wear- * y souls * shall|see * the light,|Know- ing that Christ is|near. *|
w: glo- * ry of * the|fade- * less Star,|Je- sus, Whose love we|know. *|
"^Refrain" [CFc]3"^Unison" [DFd]3 | cAB [EG]3 | [EA]3 [DF]3 | (AG)D [_B,G]3 | [CFc]3 [DFd]3 | %22
w: |||||
w: Shine on,|Beth- le- hem’s star,|Send thy|light * a- far;|Tell of|
w: |||||
 (cA)B [EG]3 |[M:4/4]"^Parts""^rall." [EA][FA][FB][FA] [DG]2 [EG]2 | [CF]2- [CF]2 |] %25
w: |||
w: Je- * sus’ birth|Till His glo- ry fills the|earth. *|
w: |||
V:2
 C | C2 x4 | ^G2 x4 | E2 x4 | x5 C | C2 x4 | ^G2 x4 | F2 F2 x2 | x6 | x6 | x6 | x6 | x5 C | C2 x4 | %14
 ^G2 x4 | x6 | x6 || x6 | [DG]3 x3 | x6 | =B,3 x3 | x6 | [DG]3 x3 |[M:4/4] x8 | x4 |] %25
V:3
 [F,A,] | (A,B,)[F,G,] (A,C)[F,C] | (D=B,)[F,B,] [F,C]2 [F,_B,] | [C,G,]2 [C,C] [C,C]2 [C,C] | %4
 [F,C]3- [F,C]2 [F,A,] | (A,B,)[F,G,] (A,C)[F,C] | (D=B,)[F,B,] [F,C]2 [F,C] | %7
 (=B,C)[G,B,] (B,C)[G,D] | ([C,C]3 [C,C]2) z | (C,D,)E, (F,G,)A, | (B,CB,) A,2 z | %11
 (C,D,)E, (F,B,)A, | (G,G,A, [C,B,]2) [F,A,] | (A,B,)[F,G,] (A,C)[F,C] | (D=B,)[F,B,] [F,C]3 | %15
 [C,A,][C,B,][C,A,] [C,B,]2 [C,C] | [F,A,]3- [F,A,]2 z || %17
 ([F,A,][F,A,][F,A,]) ([D,A,][D,A,][D,A,]) | [G,B,][G,B,][G,B,] ([C,B,][C,B,][C,B,]) | %19
 ([^C,A,][C,A,][C,A,]) ([D,A,][D,A,][D,A,]) | ([G,,F,][G,,F,])[G,,F,] ([C,E,][D,F,][C,E,]) | %21
 ([F,A,][F,A,][F,A,]) ([D,A,][D,A,][D,A,]) | ([G,B,][G,B,])[G,B,] ([C,B,][C,B,][C,B,]) | %23
[M:4/4] [^C,A,][D,A,][G,,D][A,,^C] [B,,B,]2 [C,B,]2 | [F,A,]2- [F,A,]2 |] %25
V:4
 x | F,2 F,2 x2 | F,2 x4 | x6 | x6 | F,2 F,2 x2 | F,2 x4 | G,2 G,2 x2 | x6 | x6 | x6 | x6 | %12
 C,3 x3 | F,2 F,2 x2 | F,2 x4 | x6 | x6 || x6 | x6 | x6 | x6 | x6 | x6 |[M:4/4] x8 | x4 |] %25

